resources/svg/macbook-line.svg

<svg fill="currentColor" viewBox="0 0 24 24" xmlns="http://www.w3.org/2000/svg"><path d="M4 5V16H20V5H4ZM2 4.00748C2 3.45107 2.45531 3 2.9918 3H21.0082C21.556 3 22 3.44892 22 4.00748V18H2V4.00748ZM1 19H23V21H1V19Z"/></svg>

<svg xmlns="http://www.w3.org/2000/svg" viewBox="0 0 24 24" fill="currentColor">
    <g>
        <path fill="none" d="M0 0h24v24H0z"/>
        <path d="M4 5v11h16V5H4zm-2-.993C2 3.451 2.455 3 2.992 3h18.016c.548 0 .992.449.992 1.007V18H2V4.007zM1 19h22v2H1v-2z"/>
    </g>
</svg>
